src/components/00-materials/images-raw/Furniture.svg

<svg width="96" height="96" viewBox="0 0 96 96" fill="none" xmlns="http://www.w3.org/2000/svg">
<path d="M61.23 14H34.79C33.6854 14 32.79 14.8954 32.79 16V50.49C32.79 51.5946 33.6854 52.49 34.79 52.49H61.23C62.3346 52.49 63.23 51.5946 63.23 50.49V16C63.23 14.8954 62.3346 14 61.23 14Z" stroke="#00008F" stroke-width="2" stroke-linecap="round" stroke-linejoin="round"/>
<path d="M25.73 51.2101V60.2101C25.7326 60.8899 26.0046 61.5411 26.4863 62.0209C26.9679 62.5007 27.6201 62.7701 28.3 62.7701H32.6M63.4 62.7501H67.72C68.399 62.7501 69.0501 62.4804 69.5302 62.0003C70.0103 61.5202 70.28 60.869 70.28 60.1901V51.1901M47.76 66.6001V82.0001M48 60.1901V52.4901M23.62 50.5701H26.19M69.81 50.5701H72.38M63.23 66.6001V62.7501C63.2274 62.0702 62.9554 61.4191 62.4737 60.9393C61.9921 60.4595 61.3399 60.1901 60.66 60.1901H35.36C34.6801 60.1901 34.0279 60.4595 33.5463 60.9393C33.0646 61.4191 32.7926 62.0702 32.79 62.7501V66.6001H63.23ZM32.79 82.0001V80.7201C32.7926 80.0393 33.0642 79.3871 33.5456 78.9057C34.027 78.4243 34.6792 78.1527 35.36 78.1501H60.66C61.3408 78.1527 61.993 78.4243 62.4744 78.9057C62.9558 79.3871 63.2274 80.0393 63.23 80.7201V82.0001H32.79Z" stroke="#00008F" stroke-width="2" stroke-linecap="round" stroke-linejoin="round"/>
</svg>

<svg width="96" height="96" viewBox="0 0 96 96" fill="none" xmlns="http://www.w3.org/2000/svg"><path d="M61.23 14H34.79a2 2 0 00-2 2v34.49a2 2 0 002 2h26.44a2 2 0 002-2V16a2 2 0 00-2-2zM25.73 51.21v9a2.57 2.57 0 002.57 2.56h4.3m30.8-.02h4.32a2.56 2.56 0 002.56-2.56v-9M47.76 66.6V82M48 60.19v-7.7m-24.38-1.92h2.57m43.62 0h2.57M63.23 66.6v-3.85a2.57 2.57 0 00-2.57-2.56h-25.3a2.57 2.57 0 00-2.57 2.56v3.85h30.44zM32.79 82v-1.28a2.58 2.58 0 012.57-2.57h25.3a2.58 2.58 0 012.57 2.57V82H32.79z" stroke="#00008F" stroke-width="2" stroke-linecap="round" stroke-linejoin="round"/></svg>
